!!!!SEGMENT: pl-sa--27-a-i-27--004_dankowski-adalbert--vespere-de-confessore-beatus-vir.krn
!!!cenid: 18xx:329
!!!COM: Dankowski, Adalbert
!!!COM-rismID: pe30000793
!!!CDT: ~1760-~1836
!!!CNT: Polish
!!!OPR: Vespere de confessore
!!!OTL: Beatus vir
!!!OMV: 004
!!!PDT: 1815
!!!AGN: Sacred; Vespers
!!!SMS-siglum: PL-SA
!!!SMS-shelfmark: 27/A I 27
!!!SMS-shelfwork: 001-004 M
!!!SMS-variant:
!!!SMS-altvar:
!!!NIFC-rismSourceID: 1001068242
!!!NIFC-islandoraID:
!!!URL-pdf-islandora:
!!!URL-scan: https://bc.bdsandomierz.pl/dlibra/publication/1260/edition/1228/content @EN{Scan in the Sandomierz Diocese Digital Library} @PL{Skany w portalu Cyfrowa Biblioteka Diecezjalna w Sandomierzu}
!!!ONB-nifc: UWAGA: części Vespere: Domine ad adiuvandum, Dixit dominus, Confitebor,
!!!AIN: 1 alto 1 organ 1 tenor 2 violn 1 vox
!!!key:
**kern	**fba	**dynam	**kern	**dynam	**kern	**dynam	**kern	**text	**kern	**text	**kern	**text
*part6	*	*part6	*part5	*part5	*part4	*part4	*part3	*part3	*part2	*part2	*part1	*part1
*staff6	*	*	*staff5	*	*staff4	*	*staff3	*staff3	*staff2	*staff2	*staff1	*staff1
*group3	*	*	*group2	*	*group2	*	*group1	*	*group1	*	*group1	*
*Iorgan	*	*	*Ivioln	*	*Ivioln	*	*Itenor	*	*Ialto	*	*Ivox	*
*I"Organo	*	*	*I"Violino 2do	*	*I"Violino Primo	*	*I"Tenore	*	*I"Alto	*	*I"Canto	*
*I'Org	*	*	*I'vl 2	*	*I'vl 1	*	*I'T	*	*I'A	*	*I'S	*
*group3	*	*	*group2	*	*group2	*	*group1	*	*group1	*	*group1	*
*clefF4	*	*	*clefG2	*	*clefG2	*	*clefC4	*	*clefC3	*	*clefC1	*
*k[f#c#]	*	*	*k[f#c#]	*	*k[f#c#]	*	*k[f#c#]	*	*k[f#c#]	*	*k[f#c#]	*
*D:	*	*	*D:	*	*D:	*	*D:	*	*D:	*	*D:	*
*M2/2	*	*	*M2/2	*	*M2/2	*	*M2/2	*	*M2/2	*	*M2/2	*
=1	=1	=1	=1	=1	=1	=1	=1	=1	=1	=1	=1	=1
*2\right	*	*	*2\right	*	*2\right	*	*2\right	*	*2\right	*	*2\right	*
!LO:TX:b:t=Beatus	!	!	!LO:TX:b:t=Beatus	!	!LO:TX:b:t=Beatus	!	!LO:TX:a:t=allabr.	!	!	!	!	!
!LO:TX:a:t=Allabr.	!	!	!LO:TX:a:t=allabr.	!	!LO:TX:a:t=allabr	!	!	!	!	!	!LO:TX:a:t=allabr.	!
4D/	.	.	8f#/L	.	4.dd\	.	2A\	Be-	2f#\	Be-	2dd\	Be-
.	.	.	8a/	.	.	.	.	.	.	.	.	.
4D/	.	.	8f#/	.	.	.	.	.	.	.	.	.
.	.	.	8a/J	.	(16cc#\LL	.	.	.	.	.	.	.
.	.	.	.	.	16dd\JJ)	.	.	.	.	.	.	.
4C#/	.	.	8g/L	.	8ff#\L	.	4A\	-a-	4g\	-a-	4ee\	-a-
.	.	.	8a/	.	(8ee\	.	.	.	.	.	.	.
4C#/	6: 5:	.	8g/	.	8dd\	.	4A\	-tus	4g\	-tus	4ee\	-tus
.	.	.	8a/J	.	8ee\J)	.	.	.	.	.	.	.
=2	=2	=2	=2	=2	=2	=2	=2	=2	=2	=2	=2	=2
*	*	*	*tremolo	*	*	*	*	*	*	*	*	*
*	*	*	*tremolo	*	*	*	*	*	*	*	*	*
4D\	.	.	8f#/L	.	(4.ff#\	.	2A\	Vir	2f#\	Vir	2dd\	Vir
.	.	.	8a/	.	.	.	.	.	.	.	.	.
4D\	.	.	8f#/	.	.	.	.	.	.	.	.	.
.	.	.	8a/J	.	8aa\)	.	.	.	.	.	.	.
4F#\	6_	.	8f#/L	.	4dd`\	.	2A\	qui	2a\	qui	2dd\	qui
.	.	.	8a/	.	.	.	.	.	.	.	.	.
4F#\	.	.	8f#/	.	4dd`\	.	.	.	.	.	.	.
.	.	.	8a/J	.	.	.	.	.	.	.	.	.
=3	=3	=3	=3	=3	=3	=3	=3	=3	=3	=3	=3	=3
4G\	6:	.	8g/L	.	8ee\L	.	4B\	ti-	4g\	ti-	4ee\	ti-
.	.	.	8b/	.	8ff#\	.	.	.	.	.	.	.
4G\	.	.	8g/	.	8gg\	.	4B\	-met	4g\	-met	4ee\	-met
.	.	.	8b/J	.	8ee\J	.	.	.	.	.	.	.
.	.	.	.	.	8qdd/	.	.	.	.	.	.	.
4A\	.	.	8e/L	.	4cc#\	.	4A\	Do-	4e\	Do-	4cc#\	Do-
.	.	.	8g/	.	.	.	.	.	.	.	.	.
4A\	.	.	8e/	.	8b\L	.	4A\	-mi-	4e\	-mi-	4cc#\	-mi-
.	.	.	8g/J	.	8cc#\J	.	.	.	.	.	.	.
=4	=4	=4	=4	=4	=4	=4	=4	=4	=4	=4	=4	=4
4D\	.	.	8f#/L	.	4.dd\	.	2A\	-num	2f#\	-num	2dd\	-num
.	.	.	8a/	.	.	.	.	.	.	.	.	.
4D\	.	.	8f#/	.	.	.	.	.	.	.	.	.
.	.	.	8a/J	.	(16cc#\LL	.	.	.	.	.	.	.
.	.	.	.	.	16dd\JJ	.	.	.	.	.	.	.
4C#\	6 5_	.	8g/L	.	8ff#\L)	.	4A\	in	4g\	in	4ee\	in
.	.	.	8a/	.	8ee\	.	.	.	.	.	.	.
4C#\	.	.	8g/	.	8dd\	.	4A\	man-	4g\	Man-	4ee\	Man-
.	.	.	8a/J	.	8ee\J	.	.	.	.	.	.	.
=5	=5	=5	=5	=5	=5	=5	=5	=5	=5	=5	=5	=5
4D\	x	.	8f#/L	.	4.ff#\	.	2A\	-da-	2f#\	-da-	2dd\	-da-
.	.	.	8a/	.	.	.	.	.	.	.	.	.
4D\	.	.	8f#/	.	.	.	.	.	.	.	.	.
.	.	.	8a/J	.	8aa\	.	.	.	.	.	.	.
4F#\	6_	.	8g/L	.	4dd`\	.	2d\	-tis	2a\	-tis	2dd\	-tis
.	.	.	8a/	.	.	.	.	.	.	.	.	.
4F#\	.	.	8g/	.	4dd`\	.	.	.	.	.	.	.
.	.	.	8a/J	.	.	.	.	.	.	.	.	.
*	*	*	*Xtremolo	*	*	*	*	*	*	*	*	*
!LO:LB:g=original	!	!	!	!	!	!	!	!	!	!	!	!
=6	=6	=6	=6	=6	=6	=6	=6	=6	=6	=6	=6	=6
4G\	4 2	.	4a/	.	(8dd\L	.	4e\	e-	4a\	e-	4cc#\	e-
.	.	.	.	.	8cc#\	.	.	.	.	.	.	.
4F#\	6	.	4a/	.	8cc#\	.	4d\	-jus	4a\	-jus	4dd\	-jus
.	.	.	.	.	8dd\J)	.	.	.	.	.	.	.
4E\	6	.	8cc#\L	.	8ee\L	.	4c#\	vo-	4a\	vo-	4ee\	vo-
.	.	.	8ee\	.	(8gg\	.	.	.	.	.	.	.
4D\	.	.	8dd\	.	8ff#\	.	4d\	-let	4a\	-let	4ff#\	-let
.	.	.	8ff#\J	.	8aa\J)	.	.	.	.	.	.	.
!	!	!	!	!	!LO:LB:g=original	!	!LO:LB:g=original	!	!LO:LB:g=original	!	!	!
=7	=7	=7	=7	=7	=7	=7	=7	=7	=7	=7	=7	=7
4A\	4	.	4.dd\	.	4.ff#\	.	2d\	ni-	2a\	ni-	2ff#\	ni-
4AA/	#	.	.	.	.	.	.	.	.	.	.	.
.	.	.	(16cc#\LL	.	(16ee\LL	.	.	.	.	.	.	.
.	.	.	16dd\JJ)	.	16ff#\JJ)	.	.	.	.	.	.	.
4A\	.	.	8cc#\L	.	8ee\L	.	4c#\	-mis	4a\	-mis	4ee\	-mis
.	.	.	8dd\	.	8ff#\	.	.	.	.	.	.	.
4r	.	.	8ee\	.	8gg\	.	4r	.	4r	.	4r	.
.	.	.	8cc#\J	.	8ee\J	.	.	.	.	.	.	.
!	!	!	!	!	!	!	!	!	!	!	!LO:LB:g=original	!
=8	=8	=8	=8	=8	=8	=8	=8	=8	=8	=8	=8	=8
*	*	*	*tremolo	*	*	*	*	*	*	*	*	*
!	!	!	!LO:TX:a:t=P:problem=4\right (w tremolo)	!	!	!	!	!	!	!	!	!
4D\	.	.	8a\L	.	4.ff#\	.	2d\	Po-	2a\	Po-	2ff#\	po-
.	.	.	8ff#\	.	.	.	.	.	.	.	.	.
4D\	5#	.	8a\	.	.	.	.	.	.	.	.	.
.	.	.	8ff#\J	.	8gg\	.	.	.	.	.	.	.
!	!	!	!LO:LB:g=original	!	!	!	!	!	!	!	!	!
4D\	.	.	8a\L	.	8aa\L	.	4d\	-tens	4a\	-tens	4ff#\	-tens
.	.	.	8ff#\	.	8bb\	.	.	.	.	.	.	.
4D\	.	.	8a\	.	8ccc#\	.	4d\	in	4a\	in	4ff#\	in
.	.	.	8ff#\J	.	8ddd\J	.	.	.	.	.	.	.
=9	=9	=9	=9	=9	=9	=9	=9	=9	=9	=9	=9	=9
4D\	6_ 4_	.	8b\L	.	4bb\	.	1d	ter-	1b	ter-	1gg	ter-
.	.	.	8gg\	.	.	.	.	.	.	.	.	.
4D\	.	.	8b\	.	8bb\L	.	.	.	.	.	.	.
.	.	.	8gg\J	.	8aa\J	.	.	.	.	.	.	.
4D\	.	.	8b\L	.	8bb\L	.	.	.	.	.	.	.
.	.	.	8gg\	.	8ccc#\	.	.	.	.	.	.	.
4D\	.	.	8b\	.	8ddd\	.	.	.	.	.	.	.
.	.	.	8gg\J	.	8bb\J	.	.	.	.	.	.	.
=10	=10	=10	=10	=10	=10	=10	=10	=10	=10	=10	=10	=10
4D\	5_ #_	.	8a\L	.	4.aa\	.	2d\	-ra	2a\	-ra	2ff#\	-ra
.	.	.	8ff#\	.	.	.	.	.	.	.	.	.
4D\	.	.	8a\	.	.	.	.	.	.	.	.	.
.	.	.	8ff#\J	.	16ff#\LL	.	.	.	.	.	.	.
.	.	.	.	.	16gg\JJ	.	.	.	.	.	.	.
4D\	.	.	8a\L	.	8aa\L	.	4d\	e-	4a\	e-	4ff#\	e-
.	.	.	8ff#\	.	8bb\	.	.	.	.	.	.	.
4D\	.	.	8a\	.	8ccc#\	.	4d\	-rit	4a\	-rit	4ff#\	-rit
.	.	.	8ff#\J	.	8ddd\J	.	.	.	.	.	.	.
=11	=11	=11	=11	=11	=11	=11	=11	=11	=11	=11	=11	=11
4D\	6_ 4_	.	8b\L	.	4bb\	.	2d\	Se-	2b\	Se-	2gg\	se-
.	.	.	8gg\	.	.	.	.	.	.	.	.	.
4D\	.	.	8b\	.	8bb\L	.	.	.	.	.	.	.
.	.	.	8gg\J	.	8aa\J	.	.	.	.	.	.	.
4D\	.	.	8b\L	.	8bb\L	.	2d\	-men	2b\	-men	2gg\	-men
.	.	.	8gg\	.	8ccc#\	.	.	.	.	.	.	.
4D\	.	.	8b\	.	8ddd\	.	.	.	.	.	.	.
.	.	.	8gg\J	.	8bb\J	.	.	.	.	.	.	.
*	*	*	*Xtremolo	*	*	*	*	*	*	*	*	*
=12	=12	=12	=12	=12	=12	=12	=12	=12	=12	=12	=12	=12
4D\	x	.	8gg\L	.	(8bb\L	.	4d\	e-	4a\	e-	4ff#\	e-
.	.	.	8ff#\J	.	8aa\J)	.	.	.	.	.	.	.
4D\	.	.	4ff#\	.	4.aa\	.	4d\	-jus	4a\	-ius	4ff#\	-jus
4D#X\	6_ 5	.	4ff#\	.	.	.	4B\	ge-	4a\	ge-	4ff#\	ge-
.	.	.	.	.	8ff#\L	.	.	.	.	.	.	.
4D#\	.	.	4ff#\	.	8bb\	.	4B\	-ne-	8b\L	-ne-	4ff#\	-ne-
.	.	.	.	.	8aa\J	.	.	.	8a\J	.	.	.
!LO:LB:g=original	!	!	!	!	!LO:LB:g=original	!	!	!	!	!	!	!
=13	=13	=13	=13	=13	=13	=13	=13	=13	=13	=13	=13	=13
4E\	#	.	4b\	.	8aa\L	.	4B\	-ra-	4g#X\	-ra-	4ee\	-ra-
.	.	.	.	.	8gg#X\J	.	.	.	.	.	.	.
4E\	.	.	4b\	.	4.gg#\	.	4B\	-ti-	4g#\	-tio	4ee\	-ti-
4C#/	4	.	4ee\	.	.	.	4A\	-o	4gn\	re-	4ee\	-o
.	.	.	.	.	8ee\L	.	.	.	.	.	.	.
4C#/	6: 5:	.	4ee\	.	8aa\	.	4A\	re-	8a\L	.	4ee\	re-
.	.	.	.	.	8ggn\J	.	.	.	8g\J	.	.	.
!	!	!	!	!	!	!	!LO:LB:g=original	!	!LO:LB:g=original	!	!	!
=14	=14	=14	=14	=14	=14	=14	=14	=14	=14	=14	=14	=14
4Dn\	.	.	4dd\	.	8gg\L	.	2A\	-cto-	2f#\	-cto-	2dd\	-cto-
.	.	.	.	.	8ff#\J	.	.	.	.	.	.	.
4D\	.	.	4dd\	.	4.aa\	.	.	.	.	.	.	.
4F#\	6_	.	4a/	.	.	.	4d\	-rum	4a\	-rum	4ee\	-rum
.	.	.	.	.	(8ff#\L	.	.	.	.	.	.	.
4F#\	.	.	4a/	.	8ee\	.	4d\	be-	4a\	be-	4ee\	be-
.	.	.	.	.	8dd\J)	.	.	.	.	.	.	.
=15	=15	=15	=15	=15	=15	=15	=15	=15	=15	=15	=15	=15
4G\	6_	.	4.b/	.	4ee\	.	4B\	-ne-	4g\	-ne-	4ee\	-ne-
4G\	.	.	.	.	8gg\L	.	4B\	-di-	4g\	-di-	4ee\	-di-
.	.	.	8g/	.	8ee\J	.	.	.	.	.	.	.l
!	!	!	!	!	!	!	!LO:SIC:l:s=can-	!	!LO:SIC:l:s=can-	!	!LO:SIC:l:s=can-	!
4A\	4	.	8g/L	.	(8ee\L	.	2A\	-ce-	4f#\	-ce-	4dd\	-ce-
.	.	.	8f#/	.	8dd\	.	.	.	.	.	.	.
4AA/	#	.	8f#/	.	8dd\	.	.	.	4e\	.	4cc#\	.
.	.	.	8e/J	.	8cc#\J)	.	.	.	.	.	.	.
!	!	!	!	!	!	!	!	!	!	!	!LO:LB:g=original	!
=16	=16	=16	=16	=16	=16	=16	=16	=16	=16	=16	=16	=16
!LO:TX:a:t=Solo	!	!	!	!	!	!	!	!	!	!	!	!
2D\	.	.	2f#/	.	4dd\	.	2A\	-tur	2f#\	-tur	2dd\	-tur
.	.	.	.	.	16ff#\LL	.	.	.	.	.	.	.
.	.	.	.	.	(16ee\	.	.	.	.	.	.	.
.	.	.	.	.	16ff#\	.	.	.	.	.	.	.
.	.	.	.	.	16gg\JJ)	.	.	.	.	.	.	.
4r	.	.	4r	.	8aa'\L	.	2r	.	2r	.	2r	.
.	.	.	.	.	8ff#'\	.	.	.	.	.	.	.
4D\	.	.	4a/	.	8dd'\	.	.	.	.	.	.	.
.	.	.	.	.	8ff#'\J	.	.	.	.	.	.	.
!	!	!	!LO:LB:g=original	!	!	!	!	!	!	!	!	!
=17	=17	=17	=17	=17	=17	=17	=17	=17	=17	=17	=17	=17
!	!	!	!	!	!	!	!	!	!LO:TX:a:t=P:problem=klamra łukowa nad 1	!	!	!
!	!	!	!	!	!	!	!LO:TX:a:t=18.	!	!LO:TX:a:t=1	!	!LO:TX:a:t=10	!
4G\	6_	.	4.b/	.	8ff#\L	.	00r	.	1r	.	00r	.
.	.	.	.	.	8ee\	.	.	.	.	.	.	.
4G\	.	.	.	.	8gg\	.	.	.	.	.	.	.
.	.	.	8g/	.	8ee\J	.	.	.	.	.	.	.
4A\	4	.	8g/L	.	(8ee\L	.	.	.	.	.	.	.
.	.	.	8f#/	.	8dd\	.	.	.	.	.	.	.
4GG/	#	.	8f#/	.	8dd\	.	.	.	.	.	.	.
.	.	.	8e/J	.	8cc#\J)	.	.	.	.	.	.	.
=18	=18	=18	=18	=18	=18	=18	=18	=18	=18	=18	=18	=18
*	*	*	*tremolo	*	*	*	*	*	*	*	*	*
!	!	!LO:DY:t=piano	!	!	!	!	!	!	!	!	!	!
!	!	!LO:DY:a	!	!	!	!LO:DY:t=p.	!	!	!LO:TX:a:t=Solo	!	!	!
4D\	.	p	8f#/L	.	(4.dd\	p	.	.	4.f#\	Glo-	.	.
.	.	.	8a/	.	.	.	.	.	.	.	.	.
4D\	.	.	8f#/	.	.	.	.	.	.	.	.	.
.	.	.	8a/J	.	8ee\	.	.	.	8g\	.	.	.
4D\	.	.	8f#/L	.	4ff#\)	.	.	.	4a\	-ri-	.	.
.	.	.	8a/	.	.	.	.	.	.	.	.	.
4D\	.	.	8f#/	.	4ff#\	.	.	.	4a\	-a	.	.
.	.	.	8a/J	.	.	.	.	.	.	.	.	.
=19	=19	=19	=19	=19	=19	=19	=19	=19	=19	=19	=19	=19
4G\	6	.	8g/L	.	4.gg\	.	.	.	4.b\	et	.	.
.	.	.	8b/	.	.	.	.	.	.	.	.	.
4G\	.	.	8g/	.	.	.	.	.	.	.	.	.
.	.	.	8b/J	.	8ee\	.	.	.	8g\	di-	.	.
!	!	!	!	!	!LO:TX:a:t=P:problem= niewyraźne oznaczenie (f?)	!	!	!	!	!	!	!
.	.	.	.	.	8qee/	.	.	.	.	.	.	.
4A\	.	.	8e/L	.	4cc#\	.	.	.	4e\	-vi-	.	.
.	.	.	8g/	.	.	.	.	.	.	.	.	.
4A\	.	.	8e/	.	8b\L	.	.	.	8d\L	-ti-	.	.
.	.	.	8g/J	.	8cc#\J	.	.	.	8e\J	.	.	.
!LO:LB:g=original	!	!	!	!	!LO:PB:g=original	!	!	!	!	!	!	!
=20	=20	=20	=20	=20	=20	=20	=20	=20	=20	=20	=20	=20
4D\	x	.	8f#/L	.	(8dd\L	.	.	.	8f#\L	-ae	.	.
.	.	.	8a/	.	8cc#\	.	.	.	8e\J	.	.	.
4D\	.	.	8f#/	.	8dd\	.	.	.	8f#\L	in	.	.
.	.	.	8a/J	.	8ee\J)	.	.	.	8g\J	.	.	.
4D\	.	.	8f#/L	.	4ff#\	.	.	.	4a\	do-	.	.
.	.	.	8a/	.	.	.	.	.	.	.	.	.
4D\	.	.	8f#/	.	4ff#\	.	.	.	4a\	-mo	.	.
.	.	.	8a/J	.	.	.	.	.	.	.	.	.
!	!	!	!	!	!	!	!	!	!LO:PB:g=original	!	!	!
=21	=21	=21	=21	=21	=21	=21	=21	=21	=21	=21	=21	=21
4G\	6:	.	8g/L	.	4.gg\	.	00r	.	4.b\	e-	00r	.
.	.	.	8b/	.	.	.	.	.	.	.	.	.
4G\	.	.	8g/	.	.	.	.	.	.	.	.	.
.	.	.	8b/J	.	8ee\	.	.	.	8g\	.	.	.
.	.	.	.	.	8qee/	.	.	.	.	.	.	.
4A\	.	.	8e/L	.	4cc#\	.	.	.	4e\	.	.	.
.	.	.	8g/	.	.	.	.	.	.	.	.	.
4B\	.	.	8e/	.	(8b\L	.	.	.	8d\L	.	.	.
.	.	.	8g/J	.	8cc#\J)	.	.	.	8e\J	.	.	.
*	*	*	*Xtremolo	*	*	*	*	*	*	*	*	*
=22	=22	=22	=22	=22	=22	=22	=22	=22	=22	=22	=22	=22
4d\	.	.	4f#/	.	2dd\	.	.	.	4f#\	-ius	.	.
4D/	.	.	4f#/	.	.	.	.	.	8g\L	et	.	.
.	.	.	.	.	.	.	.	.	8a\J	.	.	.
4d\	6	.	4r	.	4b/	.	.	.	4b\	ju-	.	.
4d#X\	5	.	4f#/	.	4a/	.	.	.	4a\	.	.	.
=23	=23	=23	=23	=23	=23	=23	=23	=23	=23	=23	=23	=23
*	*	*	*tremolo	*	*	*	*	*	*	*	*	*
4e\	#	.	8B/L	.	4.g#X/	.	.	.	4.g#X\	-sti-	.	.
.	.	.	8e/	.	.	.	.	.	.	.	.	.
4dn\	.	.	8B/	.	.	.	.	.	.	.	.	.
.	.	.	8e/J	.	(16f#/LL	.	.	.	16f#\LL	.	.	.
.	.	.	.	.	16g#/JJ)	.	.	.	16g#\JJ	.	.	.
4c#\	6	.	8c#/L	.	4a/	.	.	.	4a\	.	.	.
.	.	.	8e/	.	.	.	.	.	.	.	.	.
4A\	.	.	8c#/	.	4a/	.	.	.	4a\	-tia	.	.
.	.	.	8e/J	.	.	.	.	.	.	.	.	.
=24	=24	=24	=24	=24	=24	=24	=24	=24	=24	=24	=24	=24
4.G#X\	6: 5:	.	8d/L	.	4.b/	.	.	.	2b\	e-	.	.
.	.	.	8e/	.	.	.	.	.	.	.	.	.
.	.	.	8d/	.	.	.	.	.	.	.	.	.
16F#\LL	.	.	8e/J	.	(16a/LL	.	.	.	.	.	.	.
16G#\JJ	.	.	.	.	16b/JJ)	.	.	.	.	.	.	.
4A\	.	.	8c#/L	.	8dd`\L	.	.	.	8dd\L	.	.	.
.	.	.	8e/	.	8cc#`\	.	.	.	8cc#\J	.	.	.
4c#\	6	.	8c#/	.	8b`\	.	.	.	8b\L	-ius	.	.
.	.	.	8e/J	.	8a`\J	.	.	.	8a\J	.	.	.
=25	=25	=25	=25	=25	=25	=25	=25	=25	=25	=25	=25	=25
4e\	#:	.	8B/L	.	4.g#X/	.	00r	.	4.g#X\	ma-	0r	.
.	.	.	8e/	.	.	.	.	.	.	.	.	.
4d\	.	.	8B/	.	.	.	.	.	.	.	.	.
.	.	.	8e/J	.	(16f#/LL	.	.	.	16f#\LL	.	.	.
.	.	.	.	.	16g#/JJ)	.	.	.	16g#\JJ	.	.	.
!	!	!	!	!	!	!	!	!	!LO:LB:g=original	!	!	!
4c#\	6:	.	8c#/L	.	4a`/	.	.	.	4a\	-net	.	.
.	.	.	8e/	.	.	.	.	.	.	.	.	.
4A\	.	.	8c#/	.	4a`/	.	.	.	4a\	in	.	.
.	.	.	8e/J	.	.	.	.	.	.	.	.	.
*	*	*	*Xtremolo	*	*	*	*	*	*	*	*	*
*	*	*	*Xtremolo	*	*	*	*	*	*	*	*	*
!	!	!	!LO:LB:g=original	!	!	!	!	!	!	!	!	!
=26	=26	=26	=26	=26	=26	=26	=26	=26	=26	=26	=26	=26
4d\	6:	.	8d/L	.	8b'\L	.	.	.	8b\L	Sae-	.	.
.	.	.	8e/	.	8cc#'\	.	.	.	8cc#\J	.	.	.
4d\	.	.	8f#/	.	8dd'\	.	.	.	8dd\	-cu-	.	.
.	.	.	8d/J	.	8b'\J	.	.	.	8b\	-lum	.	.
!LO:LB:g=original	!	!	!	!	!	!	!	!	!	!	!	!
4e\	4	.	4c#/	.	4a/	.	.	.	4a\	sae-	.	.
4E\	#	.	4B/	.	4g#X/	.	.	.	4g#X\	-cu-	.	.
=27	=27	=27	=27	=27	=27	=27	=27	=27	=27	=27	=27	=27
!	!	!	!	!	!	!LO:DY:t=p.	!	!	!	!	!	!
4A\	.	.	4c#/	.	2a/	p	.	.	4a\	-li	2a\	Ex-
4A\	.	.	4c#/	.	.	.	.	.	4r	.	.	.
4A\	.	.	4c#/	.	8cc#\L	.	.	.	2r	.	8cc#\L	-or-
.	.	.	.	.	8b\	.	.	.	.	.	8b\J	.
4A\	.	.	4c#/	.	8cc#\	.	.	.	.	.	8cc#\L	-tum
.	.	.	.	.	8dd\J	.	.	.	.	.	8dd\J	.
=28	=28	=28	=28	=28	=28	=28	=28	=28	=28	=28	=28	=28
!	!	!	!	!	!	!	!	!	!LO:TX:a:t=6.	!	!	!
4G#X\	6_ 5_	.	4B/	.	2ee\	.	.	.	00r	.	2ee\	est
4G#\	.	.	4B/	.	.	.	.	.	.	.	.	.
4G#\	.	.	4B/	.	8ee\L	.	.	.	.	.	8ee\L	in
.	.	.	.	.	8ff#\	.	.	.	.	.	8ff#\J	.
4G#\	x	.	4B/	.	8ee\	.	.	.	.	.	8ee\L	te-
.	.	.	.	.	8dd\J	.	.	.	.	.	8dd\J	.
=29	=29	=29	=29	=29	=29	=29	=29	=29	=29	=29	=29	=29
4A\	.	.	4c#/	.	4.cc#\	.	00r	.	.	.	4.cc#\	-ne-
4A\	.	.	4c#/	.	.	.	.	.	.	.	.	.
.	.	.	.	.	(16dd\LL	.	.	.	.	.	16dd\LL	-bris
.	.	.	.	.	16ee\JJ)	.	.	.	.	.	16ee\JJ	.
4G#X\	6 5	.	4e/	.	4dd\	.	.	.	.	.	4dd\	lu-
4A\	.	.	4e/	.	4cc#\	.	.	.	.	.	4cc#\	-men
=30	=30	=30	=30	=30	=30	=30	=30	=30	=30	=30	=30	=30
4E\	4	.	4a/	.	4cc#\	.	.	.	.	.	4cc#\	rec-
4EE/	#	.	4g#X/	.	4b\	.	.	.	.	.	4b\	-tis
4r	.	.	4r	.	[<2ee\	.	.	.	.	.	2ee\	mi-
4G#X\	6	.	4e/	.	.	.	.	.	.	.	.	.
=31	=31	=31	=31	=31	=31	=31	=31	=31	=31	=31	=31	=31
!	!	!	!	!	!LO:TX:a:t=P:problem= nuta bez kaudy	!	!	!	!	!	!	!
2A\	6 5	.	2.f#/	.	4ee\]	.	.	.	.	.	4ee\	-se-
.	.	.	.	.	8dd\L	.	.	.	.	.	8dd\L	-ri-
.	.	.	.	.	8cc#\J	.	.	.	.	.	8cc#\J	.
2B\	.	.	.	.	[<2dd\	.	.	.	.	.	4dd\	-cors
.	.	.	8g/L	.	.	.	.	.	.	.	4dd\	et
.	.	.	8f#/J	.	.	.	.	.	.	.	.	.
=32	=32	=32	=32	=32	=32	=32	=32	=32	=32	=32	=32	=32
!	!	!	!	!	!LO:TX:a:t=P:problem= nuta bez kaudy	!	!	!	!	!	!	!
2G#X\	6 5	.	2.e/	.	4dd\]	.	.	.	0r	.	4dd\	mi-
.	.	.	.	.	8cc#\L	.	.	.	.	.	8cc#\L	-se-
.	.	.	.	.	8b\J	.	.	.	.	.	8b\J	.
!	!	!	!	!	!	!	!	!	!	!	!LO:LB:g=original	!
2A\	.	.	.	.	[<2cc#\	.	.	.	.	.	2cc#\	-ra-
.	.	.	8f#/L	.	.	.	.	.	.	.	.	.
.	.	.	8e/J	.	.	.	.	.	.	.	.	.
!LO:LB:g=original	!	!	!	!	!	!	!	!	!	!	!	!
=33	=33	=33	=33	=33	=33	=33	=33	=33	=33	=33	=33	=33
!	!	!	!	!	!LO:TX:a:t=P:problem= nuta bez kaudy	!	!	!	!	!	!	!
2D\	6	.	4d/	.	8cc#\L]	.	0r	.	.	.	8cc#\L	-tor
.	.	.	.	.	8b\	.	.	.	.	.	8b\J	.
.	.	.	8f#/L	.	8dd\	.	.	.	.	.	8dd\L	et
.	.	.	8d/J	.	8b\J	.	.	.	.	.	8b\J	.
4E\	4	.	4c#/	.	4a/	.	.	.	.	.	4a\	ju-
4EE/	#	.	4B/	.	4g#X/	.	.	.	.	.	4g#X/	.
=34	=34	=34	=34	=34	=34	=34	=34	=34	=34	=34	=34	=34
4AA/	.	.	4c#/	.	4a/	.	.	.	4r	.	4a\	-stus
!	!	!	!	!	!	!LO:DY:t=for	!	!	!	!	!	!
4r	.	.	4r	.	4cc#/	f	.	.	4f#\	Ju-	4cc#\	Iu-
!	!	!	!LO:TX:b:t=vertatur	!	!	!	!	!	!	!	!	!
2r	.	.	2r	.	4ff#\	.	.	.	4f#\	-cun-	4ff#\	-cun-
.	.	.	.	.	4ee\	.	.	.	4f#\	-dus	4ee\	-dus
!	!	!	!LO:PB:g=original	!	!LO:LB:g=original	!	!	!	!	!	!	!
=35	=35	=35	=35	=35	=35	=35	=35	=35	=35	=35	=35	=35
*	*	*	*^	*	*	*	*	*	*	*	*	*
!LO:TX:a:t=Tutti	!	!	!	!	!	!	!	!	!	!	!	!	!
4r	.	.	4rdd	4rcyy	.	1dd#X	.	4r	.	4gn\	ho-	1dd#X	ho-
4A\	4_ 2_	.	4b/	4f#/	.	.	.	4B\	Ju-	4g\	-mo	.	.
4B\	.	.	4b/	4f#/	.	.	.	4B\	-cun-	2r	.	.	.
4A\	.	.	4b/	4f#/	.	.	.	4B\	-dus	.	.	.	.
=36	=36	=36	=36	=36	=36	=36	=36	=36	=36	=36	=36	=36	=36
2Gn\	6	.	2b/	2g\	.	4ee\	.	4B\	ho-	4r	.	4ee\	-mo
.	.	.	.	.	.	4b\	.	4B\	-mo	4e\	qui	4b\	qui
2r	.	.	2r	2rcyy	.	4ee\	.	2r	.	4e\	mi-	4ee\	mi-
.	.	.	.	.	.	4ddn\	.	.	.	4e\	-se-	4ddn\	-se-
!	!	!	!	!	!	!	!	!	!	!LO:LB:g=original	!	!	!
=37	=37	=37	=37	=37	=37	=37	=37	=37	=37	=37	=37	=37	=37
4r	.	.	4r	4rcyy	.	1cc#	.	4r	.	4f#\	-re-	1cc#	-re-
4G\	4_ 2_	.	4a/	4e/	.	.	.	4A\	qui	4f#\	-tur	.	.
4A\	.	.	4a/	4e/	.	.	.	4A\	mi-	4r	.	.	.
4G\	.	.	4a/	4e/	.	.	.	4A\	-se-	4a\	mi-	.	.
*	*	*	*v	*v	*	*	*	*	*	*	*	*	*
=38	=38	=38	=38	=38	=38	=38	=38	=38	=38	=38	=38	=38
2F#\	6	.	2f#/ 2a	.	4dd\	.	4A\	-re-	4f#\	-se-	4dd\	-tur
.	.	.	.	.	4a\	.	4A\	-tur	4f#\	-retur	4a\	et
!	!	!	!	!	!	!	!LO:LB:g=original	!	!	!	!	!
4r	6 5n	.	4r	.	4dd\	.	4r	.	4r	.	4dd\	com-
4F#\	.	.	4a/	.	4ccn\	.	4d\	et	4a\	et	4ccn\	-mo-
=39	=39	=39	=39	=39	=39	=39	=39	=39	=39	=39	=39	=39
!	!	!	!	!	!	!	!	!	!LO:SIC:l:s=com-	!	!	!
4G\	.	.	4.g/	.	4.b\	.	4G/	Com-	4g\	co-	2b\	-dat
4G\	.	.	.	.	.	.	4G/	-mo-	4g\	-mo-	.	.
.	.	.	16a/LL	.	8dd\	.	.	.	.	.	.	.
.	.	.	16b/JJ	.	.	.	.	.	.	.	.	.
4E\	6|: 3:	.	4g/	.	8cc#X\L	.	4A/	-dat	4g\	-dat	2cc#X\	dis-
.	.	.	.	.	8a\	.	.	.	.	.	.	.
4E\	.	.	4g/	.	8b\	.	4A/	di-	4g\	di-	.	.
.	.	.	.	.	8cc#\J	.	.	.	.	.	.	.
=40	=40	=40	=40	=40	=40	=40	=40	=40	=40	=40	=40	=40
4D\	.	.	8f#/L	.	8dd\L	.	2A/	-spo-	2f#\	-ſpo-	2dd\	-po-
.	.	.	8e/	.	(8cc#\	.	.	.	.	.	.	.
4D\	.	.	8f#/	.	8dd\	.	.	.	.	.	.	.
.	.	.	8g/J	.	8ee\J)	.	.	.	.	.	.	.
4F#\	6:	.	4a/	.	4dd\	.	4d\	-net	4a\	-net	4dd\	-net
4F#\	.	.	4a/	.	4dd\	.	4d\	ser-	4a\	ſer-	4dd\	ser-
!LO:LB:g=original	!	!	!	!	!	!	!	!	!	!	!LO:LB:g=original	!
=41	=41	=41	=41	=41	=41	=41	=41	=41	=41	=41	=41	=41
4G\	6_	.	(4.b/	.	8ee\L	.	4B\	-mo-	4g\	-mo-	4ee\	-mo-
.	.	.	.	.	8ff#\	.	.	.	.	.	.	.
4G\	.	.	.	.	8gg\	.	4B\	-nes	4g\	-nes	4ee\	-nes
.	.	.	8g/	.	8ee\J	.	.	.	.	.	.	.
4A\	#_	.	4e/)	.	8dd\L	.	2A/	su-	2e\	ſu-	2cc#\	ſu-
.	.	.	.	.	8cc#\	.	.	.	.	.	.	.
4A\	.	.	4e/	.	8b\	.	.	.	.	.	.	.
.	.	.	.	.	8cc#\J	.	.	.	.	.	.	.
=42	=42	=42	=42	=42	=42	=42	=42	=42	=42	=42	=42	=42
4D\	x	.	8f#/L	.	8dd\L	.	2A/	-os	2f#\	-os	2dd\	-os
.	.	.	8e/	.	8cc#\	.	.	.	.	.	.	.
4D\	.	.	8f#/	.	8dd\	.	.	.	.	.	.	.
.	.	.	8g/J	.	8ff#\J	.	.	.	.	.	.	.
4D\	.	.	4a/	.	8aa\L	.	4A/	in	4f#\	in	4dd\	in
.	.	.	.	.	8ff#\	.	.	.	.	.	.	.
4F#\	6 5n	.	4a/	.	8dd\	.	4d/	ju-	4a\	ju-	4ccn\	ju-
!	!	!	!	!	!LO:TX:a:t=P:problem=skreślone pięć taktów	!	!	!	!	!	!	!
.	.	.	.	.	8ccn\J	.	.	.	.	.	.	.
!	!	!	!LO:LB:g=original	!	!	!	!	!	!LO:LB:g=original	!	!	!
=43	=43	=43	=43	=43	=43	=43	=43	=43	=43	=43	=43	=43
4G\	.	.	4.b/	.	4.b\	.	2G/	-di-	2g\	-di-	2b\	-di-
4G\	.	.	.	.	.	.	.	.	.	.	.	.
.	.	.	(8g/	.	8dd\	.	.	.	.	.	.	.
4E\	6_ 3_	.	4e/)	.	8cc#X\L	.	2A/	-ci-	2g\	-ci-	2cc#X\	-ci-
.	.	.	.	.	8a\	.	.	.	.	.	.	.
4E\	.	.	4e/	.	8b\	.	.	.	.	.	.	.
.	.	.	.	.	8cc#\J	.	.	.	.	.	.	.
=44	=44	=44	=44	=44	=44	=44	=44	=44	=44	=44	=44	=44
4D\	x	.	4f#/	.	8dd\L	.	2A\	-o	2f#\	-o	4dd\	-o
.	.	.	.	.	(8cc#\	.	.	.	.	.	.	.
*	*	*	*^	*	*	*	*	*	*	*	*	*
4D\	.	.	4a/	4f#\	.	8dd\	.	.	.	.	.	2dd\	qui-
.	.	.	.	.	.	8ee\J	.	.	.	.	.	.	.
4F#\	6_	.	4a/	4e\	.	4dd\)	.	4d\	qui-	4a\	qui-	.	.
4F#\	.	.	4a/	4e\	.	4dd\	.	4d\	-a	4a\	-a	4dd\	-a
!	!	!	!	!	!	!	!	!LO:LB:g=original	!	!	!	!	!
=45	=45	=45	=45	=45	=45	=45	=45	=45	=45	=45	=45	=45	=45
4G\	6_	.	4a/	4f#\	.	8ee\L	.	4B\	in	4g\	in	4ee\	in
.	.	.	.	.	.	8ff#\	.	.	.	.	.	.	.
4G\	.	.	4a/	4f#\	.	8gg\	.	4B\	ae-	4g\	ae-	4ee\	ae-
.	.	.	.	.	.	8ee\J	.	.	.	.	.	.	.
*	*	*	*v	*v	*	*	*	*	*	*	*	*	*
4A\	#_	.	4a/	.	8dd\L	.	2A\	-ter-	2e\	-ter-	2cc#\	-ter-
.	.	.	.	.	8cc#\	.	.	.	.	.	.	.
4A\	.	.	4a/	.	8b\	.	.	.	.	.	.	.
!	!	!	!	!	!LO:TX:b:t=vertatur	!	!	!	!	!	!	!
.	.	.	.	.	8dd\J	.	.	.	.	.	.	.
!	!	!	!	!	!LO:PB:g=original	!	!	!	!	!	!	!
=46	=46	=46	=46	=46	=46	=46	=46	=46	=46	=46	=46	=46
4D/	x	.	4f#/	.	8dd`\L	.	2A\	-num	2f#\	-num	2dd\	-nŭm
.	.	.	.	.	8ff#`\	.	.	.	.	.	.	.
*	*	*	*^	*	*	*	*	*	*	*	*	*
4D/	.	.	4a/	4f#\	.	8aa`\	.	.	.	.	.	.	.
.	.	.	.	.	.	8ff#`\J	.	.	.	.	.	.	.
!	!	!	!	!	!	!	!	!LO:TX:a:t=P:problem= o z odwróconym daszkiem	!	!	!	!	!
4C#/	.	.	4a/	4e\	.	8ee`\L	.	2A\	non	2g\	non	2ee\	non
.	.	.	.	.	.	8gg`\	.	.	.	.	.	.	.
4C#/	6: 5:	.	4a/	4e\	.	8aa`\	.	.	.	.	.	.	.
.	.	.	.	.	.	8gg`\J	.	.	.	.	.	.	.
=47	=47	=47	=47	=47	=47	=47	=47	=47	=47	=47	=47	=47	=47
4D\	.	.	4a/	4f#\	.	8ff#\L	.	2A\	Com-	2f#\	com-	2dd\	Com-
.	.	.	.	.	.	8dd\	.	.	.	.	.	.	.
4D\	.	.	4a/	4f#\	.	8ff#\	.	.	.	.	.	.	.
.	.	.	.	.	.	8aa\J	.	.	.	.	.	.	.
*	*	*	*v	*v	*	*	*	*	*	*	*	*	*
4B\	.	.	4a/	.	8gg\L	.	2B\	-mo-	2f#\	-mo-	2dd\	-mo-
.	.	.	.	.	8ff#\	.	.	.	.	.	.	.
4B\	.	.	4a/	.	8ee\	.	.	.	.	.	.	.
.	.	.	.	.	8dd\J	.	.	.	.	.	.	.
!LO:LB:g=original	!	!	!	!	!	!	!	!	!	!	!	!
=48	=48	=48	=48	=48	=48	=48	=48	=48	=48	=48	=48	=48
4G\	6_ 5_	.	4e/	.	8cc#\L	.	2B\	-ve-	2e\	-ve-	2dd\	-ve-
.	.	.	.	.	8dd\	.	.	.	.	.	.	.
4G\	.	.	4e/	.	8ee\	.	.	.	.	.	.	.
.	.	.	.	.	8dd\J	.	.	.	.	.	.	.
4A\	#_	.	4e/	.	8cc#\L	.	2A\	-bi-	2e\	-bi-	2cc#\	-bi-
.	.	.	.	.	8a\	.	.	.	.	.	.	.
4A\	.	.	4e/	.	8b\	.	.	.	.	.	.	.
.	.	.	.	.	8cc#\J	.	.	.	.	.	.	.
=49	=49	=49	=49	=49	=49	=49	=49	=49	=49	=49	=49	=49
!LO:TX:a:t=Solo	!	!	!	!	!	!	!	!	!	!	!	!
2D\	x	.	2f#/	.	4dd\	.	2A\	-tur	2f#\	-tur	2dd\	-tur
.	.	.	.	.	16ff#\LL	.	.	.	.	.	.	.
.	.	.	.	.	16ee\	.	.	.	.	.	.	.
.	.	.	.	.	16ff#\	.	.	.	.	.	.	.
.	.	.	.	.	16gg\JJ	.	.	.	.	.	.	.
4r	.	.	4r	.	8aa\L	.	2r	.	2r	.	2r	.
.	.	.	.	.	8ff#\	.	.	.	.	.	.	.
4D\	.	.	4a/	.	8dd\	.	.	.	.	.	.	.
.	.	.	.	.	8ff#\J	.	.	.	.	.	.	.
!	!	!	!	!	!	!	!	!	!	!	!LO:LB:g=original	!
=50	=50	=50	=50	=50	=50	=50	=50	=50	=50	=50	=50	=50
!	!	!	!	!	!	!	!LO:TX:a:t=2	!	!LO:TX:a:t=1	!	!LO:TX:a:t=1	!
!	!	!	!	!	!	!	!	!	!LO:TX:a:t=P:problem=klamra łukowa nad 1	!	!	!
4G\	6_	.	4.b/	.	(8ff#\L	.	0r	.	1r	.	1r	.
.	.	.	.	.	8ee\	.	.	.	.	.	.	.
4G\	.	.	.	.	8gg\	.	.	.	.	.	.	.
.	.	.	8g/	.	8ee\J	.	.	.	.	.	.	.
4A\	4	.	8g/L	.	8ee\L)	.	.	.	.	.	.	.
.	.	.	8f#/	.	(8dd\	.	.	.	.	.	.	.
4AA/	#	.	8f#/	.	8dd\	.	.	.	.	.	.	.
.	.	.	8e/J	.	8cc#\J)	.	.	.	.	.	.	.
=51	=51	=51	=51	=51	=51	=51	=51	=51	=51	=51	=51	=51
!	!	!	!	!	!	!	!	!	!	!	!LO:TX:a:t=Solo	!
4D\	.	.	4f#/	.	4dd\	.	.	.	4r	.	4r	.
!	!	!	!	!LO:DY:t=pia	!	!	!	!	!	!	!	!
!	!	!	!	!LO:DY:a	!	!LO:DY:t=p.	!	!	!	!	!	!
4r	.	.	8fn/L	p	8dd\L	p	.	.	8fn\L	Glo-	8dd\L	Glo-
.	.	.	8g/J	.	8ee\J	.	.	.	8g\J	.	8ee\J	.
!	!	!	!	!	!	!	!	!	!LO:LB:g=original	!	!	!
2r	.	.	4a/	.	4ffn\	.	.	.	4a\	-ri-	4ffn\	-ri-
.	.	.	4g/	.	4ee\	.	.	.	4g\	-a	4ee\	-a
!	!	!	!LO:LB:g=original	!	!	!	!	!	!	!	!	!
=52	=52	=52	=52	=52	=52	=52	=52	=52	=52	=52	=52	=52
!	!	!LO:DY:t=Pia	!	!	!	!	!	!	!	!	!	!
4r	.	p	1fn	.	1dd	.	4r	.	1fn	Pa-	1dd	Pa-
4B-X\	5n_ 3_	.	.	.	.	.	4B-X\	Glo-	.	.	.	.
4A\	.	.	.	.	.	.	4A\	.	.	.	.	.
4G#X\	.	.	.	.	.	.	4G#X/	-ri-	.	.	.	.
!	!	!	!	!	!LO:LB:g=original	!	!	!	!	!	!	!
=53	=53	=53	=53	=53	=53	=53	=53	=53	=53	=53	=53	=53
2A\	#	.	4e/	.	4cc#\	.	2A/	-a	4e\	-tri	4cc#\	-tri
.	.	.	8fn/L	.	8dd\L	.	.	.	8fn\L	Glo-	8dd\L	Glo-
.	.	.	8g/J	.	8ee\J	.	.	.	8g\J	.	8ee\J	.
2r	.	.	4a/	.	4ffn\	.	2r	.	4a\	-ri-	4ffn\	-ri-
.	.	.	4g/	.	4ee\	.	.	.	4g\	-a	4ee\	-a
=54	=54	=54	=54	=54	=54	=54	=54	=54	=54	=54	=54	=54
4r	.	.	1fn	.	1dd	.	4r	.	2.fn\	Fi-	2.dd\	Fi-
4B-X\	5n 3	.	.	.	.	.	4B-X\	et	.	.	.	.
4A\	.	.	.	.	.	.	4A\	Fi-	.	.	.	.
4G#X\	.	.	.	.	.	.	4G\	-li-	4f\	-li-	4dd\	-li-
!	!	!	!	!	!	!	!LO:LB:g=original	!	!	!	!	!
=55	=55	=55	=55	=55	=55	=55	=55	=55	=55	=55	=55	=55
2A\	#	.	4e/	.	4cc#\	.	2A/	-o	4e\	-o	4cc#\	-o
.	.	.	8e/L	.	8cc#\L	.	.	.	8e\L	et	8cc#\L	et
.	.	.	8fn/J	.	8dd\J	.	.	.	8fn\J	=	8dd\J	=
2r	.	.	4g/	.	4ee\	.	2r	.	4g\	Spi-	4ee\	Spi-
.	.	.	4fn/	.	4dd\	.	.	.	4f\	.	4dd\	.
!LO:LB:g=original	!	!	!	!	!	!	!	!	!	!	!	!
=56	=56	=56	=56	=56	=56	=56	=56	=56	=56	=56	=56	=56
4r	.	.	2.e/	.	2.cc#\	.	4r	.	2.e\	-ri-	2.cc#\	-ri-
!	!	!	!	!	!	!	!LO:SIC:l:s=et	!	!	!	!	!
4AA/	#_	.	.	.	.	.	4A\	ae	.	.	.	.
4A\	.	.	.	.	.	.	4A\	Spi-	.	.	.	.
4Gn\	.	.	8d/L	.	(8b\L	.	4Gn\	-ri-	8d\L	.	8b\L	.
.	.	.	8e/J	.	8cc#\J)	.	.	.	8e\J	.	8cc#\J	.
=57	=57	=57	=57	=57	=57	=57	=57	=57	=57	=57	=57	=57
4Fn\	6	.	8fn/L	.	8dd\L	.	4F#/	-tu-	4fn\	-tu-	4dd\	-tu-
.	.	.	8a/	.	8ffn\	.	.	.	.	.	.	.
4G\	6	.	8b-X/	.	8gg\	.	4G/	-i	4g\	-i	4ee\	-i
.	.	.	8g/J	.	8ee\J	.	.	.	.	.	.	.
4A\	4	.	8g/L	.	(8ee\L	.	4A/	San-	4f\	San-	4dd\	San-
.	.	.	8fn/	.	8dd\	.	.	.	.	.	.	.
4AA/	#	.	8f/	.	8dd\	.	4A/	.	4e\	.	4cc#\	.
.	.	.	8e/J	.	8cc#\J)	.	.	.	.	.	.	.
!	!	!	!	!	!	!	!	!	!LO:LB:g=original	!	!LO:LB:g=original	!
=58	=58	=58	=58	=58	=58	=58	=58	=58	=58	=58	=58	=58
4D\	n	.	4fn/	.	8dd\L	.	4D/	-cto	4f#\	-cto	4dd\	-cto
.	.	.	.	.	8a\	.	.	.	.	.	.	.
4r	.	.	8g/L	.	8b\	.	4r	.	4r	.	4r	.
.	.	.	8e/J	.	8cc#\J	.	.	.	.	.	.	.
2r	.	.	8e/L	.	(8cc#\L	.	2r	.	2r	.	2r	.
.	.	.	8f#X/	.	8dd\	.	.	.	.	.	.	.
.	.	.	8f#/	.	8dd\	.	.	.	.	.	.	.
.	.	.	8g/J	.	8ee\J)	.	.	.	.	.	.	.
=59	=59	=59	=59	=59	=59	=59	=59	=59	=59	=59	=59	=59
!	!	!	!	!LO:DY:t=for.	!	!	!	!	!	!	!	!
!LO:TX:a:t=Tutti	!	!	!	!LO:DY:a	!	!	!	!	!	!	!	!
4D\	5	.	4.f#/	f	4.dd\	.	4d\	Si-	4a\	Si-	4ff#\	Si-
4D\	.	.	.	.	.	.	4d\	-cut	4a\	-cut	4ff#\	-cut
.	.	.	16g/LL	.	16ee\LL	.	.	.	.	.	.	.
.	.	.	16a/JJ	.	16ff#X\JJ	.	.	.	.	.	.	.
4D\	.	.	4f#/	.	8dd\L	.	4d\	e-	4a\	e-	4ff#\	e-
.	.	.	.	.	8cc#\	.	.	.	.	.	.	.
4D\	.	.	4f#/	.	8b\	.	4d\	-rat	4a\	-rat	4ff#\	-rat
.	.	.	.	.	8a\J	.	.	.	.	.	.	.
=60	=60	=60	=60	=60	=60	=60	=60	=60	=60	=60	=60	=60
4D\	6_ 4_	.	4g/	.	8b\L	.	4d\	in	4b\	in	4gg\	in
.	.	.	.	.	8cc#\	.	.	.	.	.	.	.
4D\	.	.	4g/	.	8dd\	.	4d\	prin-	4b\	prin-	4gg\	prin-
.	.	.	.	.	8b\J	.	.	.	.	.	.	.
!	!	!	!	!	!LO:LB:g=original	!	!	!	!	!	!	!
4D\	.	.	4e/	.	8cc#\L	.	4d\	-ci-	4cc#\	-ci-	4ee\	-ci-
.	.	.	.	.	8dd\	.	.	.	.	.	.	.
4D\	7 2	.	4e/	.	8ee\	.	4d\	-pi-	4cc#\	-pi-	4ee\	-pi-
.	.	.	.	.	8cc#\J	.	.	.	.	.	.	.
=61	=61	=61	=61	=61	=61	=61	=61	=61	=61	=61	=61	=61
4D\	5_ #_	.	4.f#/	.	4.dd\	.	4d\	-o	4dd\	-o	4ff#\	-o
4D\	.	.	.	.	.	.	4d\	et	4dd\	et	4ff#\	et
.	.	.	16g/LL	.	(16ee\LL	.	.	.	.	.	.	.
.	.	.	16a/JJ	.	16ff#\JJ)	.	.	.	.	.	.	.
!	!	!	!	!	!	!	!LO:TX:a:t=P: u:problem	!	!LO:TX:a:t=P: u:problem	!	!LO:TX:a:t=P: u:problem	!
4D\	.	.	4f#/	.	8dd`\L	.	4d\	nŭnc	4a\	nŭnc	4ff#\	nŭnc
.	.	.	.	.	8cc#`\	.	.	.	.	.	.	.
4D\	.	.	4f#/	.	8b`\	.	4d\	et	4a\	et	4ff#\	et
.	.	.	.	.	8a`\J	.	.	.	.	.	.	.
!	!	!	!LO:LB:g=original	!	!	!	!LO:LB:g=original	!	!	!	!	!
=62	=62	=62	=62	=62	=62	=62	=62	=62	=62	=62	=62	=62
4D\	6_ 4_	.	4g/	.	8b\L	.	1d	Sem-	2b\	Sem-	2gg\	Sem-
.	.	.	.	.	8cc#\	.	.	.	.	.	.	.
4D\	.	.	4g/	.	8dd\	.	.	.	.	.	.	.
.	.	.	.	.	8b\J	.	.	.	.	.	.	.
4D\	.	.	4e/	.	8cc#\L	.	.	.	2cc#\	.	2ee\	.
.	.	.	.	.	8dd\	.	.	.	.	.	.	.
4D\	7: 2:	.	4e/	.	8ee\	.	.	.	.	.	.	.
.	.	.	.	.	8cc#\J	.	.	.	.	.	.	.
=63	=63	=63	=63	=63	=63	=63	=63	=63	=63	=63	=63	=63
4D\	#_	.	4f#/	.	8dd\L	.	2d\	-per	2dd\	-per	2ff#\	-per
.	.	.	.	.	8ff#\J	.	.	.	.	.	.	.
4D\	.	.	4f#/	.	(4.aa\	.	.	.	.	.	.	.
!LO:LB:g=original	!	!	!	!	!	!	!	!	!	!	!	!
4D#X\	6_ 5_	.	4ff#\	.	.	.	4B\	et	4a\	et	4ff#\	et
.	.	.	.	.	8ff#\L	.	.	.	.	.	.	.
4D#\	.	.	4ff#\	.	8bb\)	.	4B\	in	8b\L	in	4ff#\	in
.	.	.	.	.	8aa`\J	.	.	.	8a\J	.	.	.
=64	=64	=64	=64	=64	=64	=64	=64	=64	=64	=64	=64	=64
4E\	4_	.	4b\	.	(8aa\L	.	2B\	Sae-	2g#X\	Sae-	2ee\	Sae-
.	.	.	.	.	8gg#X\J	.	.	.	.	.	.	.
4E\	.	.	4b\	.	4gg#\)	.	.	.	.	.	.	.
!	!	!	!	!	!	!	!	!	!LO:LB:g=original	!	!	!
4C#/	6_ n5_	.	4ee\	.	8r	.	4A\	-cu-	4gn\	-cu-	4ee\	-cu-
.	.	.	.	.	8ee\L	.	.	.	.	.	.	.
4C#/	.	.	4ee\	.	8aa\	.	4A\	-la	8a\L	-la	4ee\	-la
.	.	.	.	.	8ggn\J	.	.	.	8g\J	.	.	.
!	!	!	!	!	!	!	!	!	!	!	!LO:LB:g=original	!
=65	=65	=65	=65	=65	=65	=65	=65	=65	=65	=65	=65	=65
4D\	x	.	4dd\	.	8gg\L	.	2A\	Sae-	2f#\	Sae-	2dd\	Sae-
.	.	.	.	.	8ff#\J	.	.	.	.	.	.	.
4D\	.	.	4dd\	.	4.aa\	.	.	.	.	.	.	.
4F#\	6_	.	4dd\	.	.	.	2d\	-cu-	2a\	-cu-	2dd\	-cu-
.	.	.	.	.	8ff#\L	.	.	.	.	.	.	.
4F#\	.	.	4a/	.	8ee\	.	.	.	.	.	.	.
.	.	.	.	.	8dd\J	.	.	.	.	.	.	.
=66	=66	=66	=66	=66	=66	=66	=66	=66	=66	=66	=66	=66
4G\	6_	.	4.b/	.	8ff#\L	.	4B\	-lo-	4g\	-lo-	4ee\	-lo-
.	.	.	.	.	8ee\	.	.	.	.	.	.	.
4G\	.	.	.	.	8gg\	.	4B\	-rum	4g\	-rum	4ee\	-rum
.	.	.	8g/	.	8ee\J	.	.	.	.	.	.	.
4A\	4	.	8g/L	.	(8ee\L	.	2A/	A-	4f#\	A-	4dd\	A-
.	.	.	8f#/	.	8dd\	.	.	.	.	.	.	.
4AA/	#	.	8f#/	.	8dd\	.	.	.	4e\	.	4cc#\	.
.	.	.	8e/J	.	8cc#\J)	.	.	.	.	.	.	.
=67	=67	=67	=67	=67	=67	=67	=67	=67	=67	=67	=67	=67
4D\	.	.	4f#/	.	4dd\	.	4A/	-men	2f#\	-men	4dd\	-men
4B\	.	.	4f#/ 4dd	.	4ff#\ 4ddd	.	2B\	A-	.	.	2dd\	A-
4G\	6 5	.	4e/ 4dd	.	4ee\ 4ddd	.	.	.	2e\	A-	.	.
4A\	.	.	4e/ 4cc#	.	4ee\ 4ccc#	.	4A\	.	.	.	4cc#\	.
=68	=68	=68	=68	=68	=68	=68	=68	=68	=68	=68	=68	=68
2D\	.	.	2f#/ 2dd	.	2ff#\ 2ddd	.	2A\	-men	2f#\	-men	2dd\	-men
2r	.	.	2r	.	2r	.	2r	.	2r	.	2r	.
==	==	==	==	==	==	==	==	==	==	==	==	==
*-	*-	*-	*-	*-	*-	*-	*-	*-	*-	*-	*-	*-
!!!system-decoration: [(g1)][(g2)]g3
!!!RDF**kern: >= above
!!!RDF**kern: <= below
!!!ENC: Anna Matuszewska
!!!END: 2020-10-29
!!!ENC: Marta Chmielewska
!!!END: 2020-06-05
!!!YEC: Copyright 2022 Narodowy Instytut Fryderyka Chopina (https://polishscores.org)
!!!YEM: Licence CC BY 4.0 (https://creativecommons.org/licenses/by/4.0)
